T: Pirrie Wirrie
M: 4/4
L: 1/8
K: Gmaj
c|:BGGD G3c|BGBd gdec|BGGD G3 B|A=FAB c2 BA:||!|:BddB dedc|1Bdef gfed|BddB dedB|A=FAB c2 BA:|!|2Bdef g2 de|gbeg dgBd|A=FAB c BA||
